packages/trader/src/Assets/SvgComponents/trade_explanations/img-rise-fall.svg

<svg width="328" height="164" viewBox="0 0 328 164" fill="none" xmlns="http://www.w3.org/2000/svg">
<rect width="328" height="164" rx="6" fill="var(--general-section-1)"/>
<path d="M186.131 101.337H220.47C223.844 101.337 226.579 104.224 226.579 107.779C226.579 111.346 223.844 114.221 220.47 114.221H64.0325C60.6688 114.221 57.9339 111.346 57.9339 107.779C57.9339 104.224 60.6584 101.337 64.043 101.337H131.191C134.565 101.337 137.3 98.4504 137.3 94.8955C137.3 91.3406 134.576 88.4537 131.191 88.4537H79.2896V88.3941C76.2403 87.9885 73.9454 85.2448 73.9454 82C73.9454 78.7552 76.2403 76.0115 79.2896 75.6059V75.5582H100.666C104.03 75.5582 106.765 72.6713 106.765 69.1164C106.765 65.5496 104.04 62.6627 100.656 62.6627H72.426C69.0519 62.6627 66.3169 59.7758 66.3169 56.2209C66.3169 52.654 69.0414 49.7791 72.426 49.7791H217.421C220.795 49.7791 223.53 52.654 223.53 56.2209C223.53 59.7758 220.795 62.6627 217.421 62.6627H160.94C157.577 62.6627 154.842 65.5496 154.842 69.1045C154.842 72.6594 157.577 75.5463 160.951 75.5463H194.525C197.899 75.5463 200.634 78.4451 200.634 82C200.634 85.5549 197.899 88.4418 194.525 88.4418H176.208C172.844 88.4418 170.109 91.3287 170.109 94.8836C170.109 98.4504 172.834 101.337 176.208 101.337H186.131ZM54.0986 49.7672C57.4833 49.7672 60.2182 52.6541 60.2182 56.209C60.2182 59.7877 57.4833 62.6627 54.1091 62.6627C50.735 62.6627 48 59.7758 48 56.2209C48 52.654 50.735 49.7791 54.1091 49.7791L54.0986 49.7672ZM197.574 24H240.317C243.681 24 246.416 26.875 246.416 30.4418C246.416 34.0086 243.691 36.8836 240.317 36.8836H197.574C194.21 36.8836 191.475 33.9967 191.475 30.4418C191.475 26.875 194.2 24 197.574 24ZM171.629 24C175.003 24 177.738 26.875 177.738 30.4418C177.738 34.0086 175.003 36.8836 171.629 36.8836C168.254 36.8836 165.53 33.9967 165.53 30.4418C165.53 26.875 168.254 24 171.629 24ZM245.651 49.7672H256.339C259.713 49.7672 262.448 52.6541 262.448 56.209C262.448 59.7877 259.713 62.6627 256.339 62.6627H245.651C242.287 62.6627 239.552 59.7758 239.552 56.2209C239.552 52.654 242.276 49.7791 245.651 49.7791V49.7672ZM218.94 75.5582H241.836C245.21 75.5582 247.945 78.4451 247.945 82C247.945 85.5549 245.221 88.4418 241.836 88.4418H218.951C215.577 88.4418 212.842 85.5549 212.842 82C212.842 78.4451 215.566 75.5582 218.951 75.5582H218.94ZM240.317 101.337H273.891C277.265 101.337 280 104.224 280 107.779C280 111.346 277.265 114.221 273.891 114.221H240.317C236.943 114.221 234.208 111.346 234.208 107.779C234.208 104.224 236.943 101.337 240.317 101.337ZM94.5572 127.116H163.235C166.609 127.116 169.344 130.003 169.344 133.558C169.344 137.125 166.609 140 163.235 140H94.5572C91.183 140 88.4481 137.125 88.4481 133.558C88.4481 129.991 91.1725 127.116 94.5572 127.116ZM186.131 127.116H196.82C200.183 127.116 202.918 130.003 202.918 133.558C202.918 137.125 200.194 140 196.82 140H186.131C182.757 140 180.022 137.125 180.022 133.558C180.022 129.991 182.757 127.116 186.131 127.116Z" fill="var(--fill-normal)"/>
<g clip-path="url(#clip0_8025_91604)">
<path d="M137 54H119.5V54.035C119.5 57.8817 122.618 61 126.465 61H132.065L102 91.051V100.949L137 65.949V71.549C137.008 75.3902 140.124 78.5 143.965 78.5H144V61C144 57.134 140.866 54 137 54Z" fill="#FF444F"/>
<path d="M92.949 110H88V103H95H99.949L95 107.949L92.949 110Z" fill="#85ACB0"/>
</g>
<g clip-path="url(#clip1_8025_91604)">
<path d="M239.965 85.4995C236.118 85.4995 233 88.6178 233 92.4645V98.0645L198 63.0645V72.9485L228.051 102.999H222.451C218.61 103.007 215.5 106.123 215.5 109.964V109.999H233C236.866 109.999 240 106.865 240 102.999V85.4995H239.965Z" fill="#FF444F"/>
<path d="M184 61V54H188.949L191 56.051L195.949 61H191H184Z" fill="#85ACB0"/>
</g>
<defs>
<clipPath id="clip0_8025_91604">
<rect width="56" height="56" fill="var(--fill-normal)" transform="translate(88 54)"/>
</clipPath>
<clipPath id="clip1_8025_91604">
<rect width="56" height="56" fill="var(--fill-normal)" transform="translate(184 54)"/>
</clipPath>
</defs>
</svg>

<svg width="328" height="164" fill="none" xmlns="http://www.w3.org/2000/svg"><rect width="328" height="164" rx="6" fill="var(--general-section-1)"/><path d="M186.131 101.337h34.339c3.374 0 6.109 2.887 6.109 6.442 0 3.567-2.735 6.442-6.109 6.442H64.032c-3.363 0-6.098-2.875-6.098-6.442 0-3.555 2.724-6.442 6.109-6.442h67.148c3.374 0 6.109-2.887 6.109-6.442 0-3.554-2.724-6.441-6.109-6.441H79.29v-.06c-3.05-.406-5.345-3.15-5.345-6.394 0-3.245 2.295-5.989 5.345-6.394v-.048h21.376c3.364 0 6.099-2.887 6.099-6.442 0-3.566-2.725-6.453-6.109-6.453h-28.23c-3.374 0-6.11-2.887-6.11-6.442 0-3.567 2.725-6.442 6.11-6.442h144.995c3.374 0 6.109 2.875 6.109 6.442 0 3.555-2.735 6.442-6.109 6.442H160.94c-3.363 0-6.098 2.887-6.098 6.442 0 3.554 2.735 6.441 6.109 6.441h33.574c3.374 0 6.109 2.9 6.109 6.454 0 3.555-2.735 6.442-6.109 6.442h-18.317c-3.364 0-6.099 2.887-6.099 6.442 0 3.566 2.725 6.453 6.099 6.453h9.923zM54.099 49.767c3.384 0 6.12 2.887 6.12 6.442 0 3.579-2.736 6.454-6.11 6.454S48 59.776 48 56.22c0-3.567 2.735-6.442 6.11-6.442l-.011-.012zM197.574 24h42.743c3.364 0 6.099 2.875 6.099 6.442s-2.725 6.442-6.099 6.442h-42.743c-3.364 0-6.099-2.887-6.099-6.442 0-3.567 2.725-6.442 6.099-6.442zm-25.945 0c3.374 0 6.109 2.875 6.109 6.442s-2.735 6.442-6.109 6.442c-3.375 0-6.099-2.887-6.099-6.442 0-3.567 2.724-6.442 6.099-6.442zm74.022 25.767h10.688c3.374 0 6.109 2.887 6.109 6.442 0 3.579-2.735 6.454-6.109 6.454h-10.688c-3.364 0-6.099-2.887-6.099-6.442 0-3.567 2.724-6.442 6.099-6.442v-.012zM218.94 75.558h22.896c3.374 0 6.109 2.887 6.109 6.442s-2.724 6.442-6.109 6.442h-22.885c-3.374 0-6.109-2.887-6.109-6.442s2.724-6.442 6.109-6.442h-.011zm21.377 25.779h33.574c3.374 0 6.109 2.887 6.109 6.442 0 3.567-2.735 6.442-6.109 6.442h-33.574c-3.374 0-6.109-2.875-6.109-6.442 0-3.555 2.735-6.442 6.109-6.442zm-145.76 25.779h68.678c3.374 0 6.109 2.887 6.109 6.442 0 3.567-2.735 6.442-6.109 6.442H94.557c-3.374 0-6.109-2.875-6.109-6.442s2.725-6.442 6.11-6.442zm91.574 0h10.689c3.363 0 6.098 2.887 6.098 6.442 0 3.567-2.724 6.442-6.098 6.442h-10.689c-3.374 0-6.109-2.875-6.109-6.442s2.735-6.442 6.109-6.442z" fill="var(--fill-normal)"/><g clip-path="url(#prefix__clip0_8025_91604)"><path d="M137 54h-17.5v.035A6.965 6.965 0 00126.465 61h5.6L102 91.051v9.898l35-35v5.6a6.965 6.965 0 006.965 6.951H144V61a7 7 0 00-7-7z" fill="#FF444F"/><path d="M92.949 110H88v-7h11.949L95 107.949 92.949 110z" fill="#85ACB0"/></g><g clip-path="url(#prefix__clip1_8025_91604)"><path d="M239.965 85.5A6.965 6.965 0 00233 92.465v5.6l-35-35v9.883L228.051 103h-5.6a6.965 6.965 0 00-6.951 6.965v.035H233a7 7 0 007-7v-17.5h-.035z" fill="#FF444F"/><path d="M184 61v-7h4.949L191 56.051 195.949 61H184z" fill="#85ACB0"/></g><defs><clipPath id="prefix__clip0_8025_91604"><path fill="var(--fill-normal)" transform="translate(88 54)" d="M0 0h56v56H0z"/></clipPath><clipPath id="prefix__clip1_8025_91604"><path fill="var(--fill-normal)" transform="translate(184 54)" d="M0 0h56v56H0z"/></clipPath></defs></svg>
